storage/app/icons/phosphoricons/regular/square-half-bottom.svg

<svg xmlns="http://www.w3.org/2000/svg" fill="currentColor" viewBox="0 0 256 256"><path d="M200 40H56a16 16 0 0 0-16 16v144a16 16 0 0 0 16 16h144a16 16 0 0 0 16-16V56a16 16 0 0 0-16-16m0 16v64H56V56Zm-96 80v64H88v-64Zm16 0h16v64h-16Zm32 0h16v64h-16Zm-96 0h16v64H56Zm144 64h-16v-64h16z"/></svg>

<svg xmlns="http://www.w3.org/2000/svg" viewBox="0 0 256 256" fill="currentColor"><path d="M200,40H56A16,16,0,0,0,40,56V200a16,16,0,0,0,16,16H200a16,16,0,0,0,16-16V56A16,16,0,0,0,200,40Zm0,16v64H56V56Zm-96,80v64H88V136Zm16,0h16v64H120Zm32,0h16v64H152Zm-96,0H72v64H56Zm144,64H184V136h16v64Z"/></svg>
